exported-svg/mic-off.svg

<svg height="24" viewBox="0 0 24 24" width="24" xmlns="http://www.w3.org/2000/svg"><path d="m11.5 22.5v-2.9651245c-.7975351-.0531409-1.59444108-.2345114-2.36016926-.5503743-2.82642607-1.1659007-4.66218555-3.9307896-4.63983074-6.9845012v-2c0-.27614237.22385763-.5.5-.5s.5.22385763.5.5l-.00001338 2.003658c-.01938577 2.6497203 1.57160578 5.0459573 4.02117505 6.0564046.73386083.3027176 1.50076403.4628996 2.26490793.4878853.0648564-.0307471.1373847-.0479479.2139304-.0479479.0764619 0 .1489151.0171631.2137173.0478469 1.4680599-.0486759 2.9010453-.5942539 4.0428016-1.5842212l-2.1620098-2.1620098c-.9784913.7312341-2.282481.9060842-3.4334853.4294964-1.3070467-.541199-2.15977931-1.8160115-2.1610238-3.2311123v-2.79289322l-7.85355339-7.85355339c-.19526215-.19526215-.19526215-.51184463 0-.70710678s.51184463-.19526215.70710678 0l15.84415671 15.84415669c.0550829.0236912.1068034.0577612.1522033.1022405.0479863.0470131.0844907.1013243.1094774.1594402l5.8941626 5.8941626c.1952621.1952622.1952621.5118446 0 .7071068-.1952622.1952621-.5118446.1952621-.7071068 0l-5.6812605-5.6812606c-1.260731 1.1143283-2.8373118 1.7531881-4.4651861 1.8623442v2.965363h3.5c.2761424 0 .5.2238576.5.5s-.2238576.5-.5.5h-8c-.27614237 0-.5-.2238576-.5-.5s.22385763-.5.5-.5zm1.8769888-8.4159044-3.8769888-3.8769888v1.7924534c.00088859 1.0104722.6099833 1.9210525 1.5435881 2.3076233.776279.321428 1.6499806.228014 2.3334007-.2230879zm2.1230145-4.7440956c0 .27614237-.2238594.5-.5000018.5-.2761423 0-.5-.22385763-.5-.5l.0000003-5.340502c.0012895-1.28438327-.9708728-2.36077711-2.2487535-2.48985597-1.2778808-.12907887-2.44566217.73115908-2.70124805 1.98985547-.05495095.27061967-.31887808.4454537-.58949775.39050275s-.4454537-.31887808-.39050275-.58949775c.35782022-1.76217494 1.99271405-2.96650808 3.78174725-2.78579766 1.7890327.18071038 3.1500596 1.6876613 3.1482563 3.48529516zm2.9999967.66c0-.27614237.2238576-.5.5-.5s.5.22385763.5.5v2.0004355c-.0003851.4419-.0398243.8829013-.1178573 1.3178572-.0487627.2718029-.3086325.4526127-.5804354.40385s-.4526127-.3086325-.40385-.5804354c.0676287-.3769617.1018093-.7591629.1021427-1.1417073z"/></svg>

<?xml version="1.0" encoding="UTF-8"?>
<svg width="24px" height="24px" viewBox="0 0 24 24" version="1.1" xmlns="http://www.w3.org/2000/svg" xmlns:xlink="http://www.w3.org/1999/xlink">
    <!-- Generator: Sketch 55.2 (78181) - https://sketchapp.com -->
    <title>mic-off</title>
    <desc>Created with Sketch.</desc>
    <g id="mic-off" stroke="none" stroke-width="1" fill="none" fill-rule="evenodd">
        <path d="M11.5,22.5 L11.5,19.5348755 C10.7024649,19.4817346 9.90555892,19.3003641 9.13983074,18.9845012 C6.31340467,17.8186005 4.47764519,15.0537116 4.5,12 L4.5,10 C4.5,9.72385763 4.72385763,9.5 5,9.5 C5.27614237,9.5 5.5,9.72385763 5.5,10 L5.49998662,12.003658 C5.48060085,14.6533783 7.0715924,17.0496153 9.52116167,18.0600626 C10.2550225,18.3627802 11.0219257,18.5229622 11.7860696,18.5479479 C11.850926,18.5172008 11.9234543,18.5 12,18.5 C12.0764619,18.5 12.1489151,18.5171631 12.2137173,18.5478469 C13.6817772,18.499171 15.1147626,17.953593 16.2565189,16.9636257 L14.0945091,14.8016159 C13.1160178,15.53285 11.8120281,15.7077001 10.6610238,15.2311123 C9.3539771,14.6899133 8.50124449,13.4151008 8.5,12 L8.5,9.20710678 L0.646446609,1.35355339 C0.451184464,1.15829124 0.451184464,0.841708755 0.646446609,0.646446609 C0.841708755,0.451184464 1.15829124,0.451184464 1.35355339,0.646446609 L17.1977101,16.4906033 C17.252793,16.5142945 17.3045135,16.5483645 17.3499134,16.5928438 C17.3978997,16.6398569 17.4344041,16.6941681 17.4593908,16.752284 L23.3535534,22.6464466 C23.5488155,22.8417088 23.5488155,23.1582912 23.3535534,23.3535534 C23.1582912,23.5488155 22.8417088,23.5488155 22.6464466,23.3535534 L16.9651861,17.6722928 C15.7044551,18.7866211 14.1278743,19.4254809 12.5,19.534637 L12.5,22.5 L16,22.5 C16.2761424,22.5 16.5,22.7238576 16.5,23 C16.5,23.2761424 16.2761424,23.5 16,23.5 L8,23.5 C7.72385763,23.5 7.5,23.2761424 7.5,23 C7.5,22.7238576 7.72385763,22.5 8,22.5 L11.5,22.5 Z M13.3769888,14.0840956 L9.5,10.2071068 L9.5,11.9995602 C9.50088859,13.0100324 10.1099833,13.9206127 11.0435881,14.3071835 C11.8198671,14.6286115 12.6935687,14.5351975 13.3769888,14.0840956 Z M15.5000033,9.34 C15.5000033,9.61614237 15.2761439,9.84 15.0000015,9.84 C14.7238592,9.84 14.5000015,9.61614237 14.5000015,9.34 L14.5000018,3.999498 C14.5012913,2.71511473 13.529129,1.63872089 12.2512483,1.50964203 C10.9733675,1.38056316 9.80558613,2.24080111 9.55000025,3.4994975 C9.4950493,3.77011717 9.23112217,3.9449512 8.9605025,3.89000025 C8.68988283,3.8350493 8.5150488,3.57112217 8.56999975,3.3005025 C8.92781997,1.53832756 10.5627138,0.333994421 12.351747,0.51470484 C14.1407797,0.695415219 15.5018066,2.20236614 15.5000033,4 L15.5000033,9.34 Z M18.5,10 C18.5,9.72385763 18.7238576,9.5 19,9.5 C19.2761424,9.5 19.5,9.72385763 19.5,10 L19.5,12.0004355 C19.4996149,12.4423355 19.4601757,12.8833368 19.3821427,13.3182927 C19.33338,13.5900956 19.0735102,13.7709054 18.8017073,13.7221427 C18.5299044,13.67338 18.3490946,13.4135102 18.3978573,13.1417073 C18.465486,12.7647456 18.4996666,12.3825444 18.5,12 L18.5,10 Z" id="Combined-Shape" fill="#000000" fill-rule="nonzero"></path>
    </g>
</svg>
